!!!SOCIAL_FUNCTION:	memorial ceremony songs
!!!PDT:	1932
!!!OTL: No_34_Coyote_Plans_to_Seize_the_Heart.krn
!!!REG: Southwest
!!!LANG: Non-Tone
!!!LING_GROUP: Yuman-Cochimi
**kern	**kern
*staff2	*staff1
=1-	=1-
*clefF4	*clefF4
*k[f#c#g#]	*k[f#c#g#]
*M3/4	*M3/4
2.r	4E\
.	4D\
.	4D\
=2||	=2||
*M2/4	*M2/4
8GG#^/L	4E\
8GG#/J	.
8GG#/	4D\
16r	.
16GG#/	.
=3	=3
8GG#^/L	4E\
8GG#/J	.
8GG#/	4E\
16r	.
16GG#/	.
=4	=4
2r	4E\
.	4r
=5	=5
2r	8A\L
.	8F#\J
.	4A\
=6	=6
2r	4A\
.	4A\
=7	=7
2r	4B\
.	4A\
=8	=8
2r	8F#\L
.	8E\J
.	4E\
=9	=9
2r	4A\
.	8F#\L
.	8F#\J
=10	=10
2r	4E\
.	4C#/
=11	=11
2r	4C#/
.	4E\
=12	=12
2r	4E\
.	4C#/
=13	=13
2r	8E\L
.	8E\J
.	4E\
=14	=14
2r	4E\
.	4r
=15	=15
2r	8A\L
.	8F#\J
.	4A\
=16	=16
2r	4A\
.	4A\
=17	=17
2r	4B\
.	4A\
=18	=18
2r	8F#\L
.	8E\J
.	4E\
=19	=19
2r	4A\
.	8F#\L
.	8F#\J
=20	=20
2r	4E\
.	4C#/
=21	=21
2r	8E/L
.	8C#/J
.	4E\
=22	=22
2r	4E\
.	4C#/
=23	=23
2r	4E\
.	4E\
=24	=24
2r	4E\
.	4r
=25	=25
2r	2r
=26	=26
2r	4E\
.	4E\
=27	=27
2r	4B\
.	4B\
=28	=28
2r	4c#\
.	4B\
=29	=29
2r	4A\
.	4F#\
=30	=30
2r	4c#\
.	4B\
=31	=31
2r	8F#\L
.	8E\J
.	4E\
=32	=32
2r	4A\
.	8F#\L
.	8E\J
=33	=33
2r	4E\
.	8C#/L
.	8C#/J
=34	=34
2r	2C#/
=35	=35
2r	8E/L
.	8C#/J
.	4E\
=36	=36
2r	4E\
.	4r
=37	=37
2r	8A\L
.	8F#\J
.	4A\
=38	=38
2r	4A\
.	4A\
=39	=39
2r	4B\
.	4A\
=40	=40
2r	8F#\L
.	8E\J
.	4E\
=41	=41
2r	4A\
.	8F#\L
.	8E\J
=42	=42
2r	4E\
.	4C#/
=43	=43
2r	4C#/
.	4C#/
=44	=44
2r	4.E\
.	8C#/
=45	=45
2r	4E\
.	4E\
=46	=46
2r	8E\L
.	8E\J
.	4C#/
=47	=47
2r	4E\
.	4E\
=48||	=48||
*M3/4	*M3/4
2.r	4E\
.	8E\L
.	8E\J
.	4C#/
=49	=49
2.r	4E\
.	2r
=50||	=50||
*M2/4	*M2/4
2r	4E\
.	4C#/
=51	=51
2r	8E\L
.	8E\J
.	8E/L
.	8C#/J
=52	=52
2r	4E\
.	4C#/
=53	=53
2r	8E\L
.	8E\J
.	4E\
=54	=54
2r	4C#/
.	4C#/
=55	=55
2r	4E\
.	4C#/
=56	=56
2r	4E\
.	4E\
=57	=57
2r	4E\
.	4r
==	==
*-	*-
